;FLAVOR:Marlin
;TIME:47
;Filament used:0.0253844m
;Layer height: 0.25
;MINX:108.2
;MINY:108.2
;MINZ:0.19
;MAXX:111.8
;MAXY:111.8
;MAXZ:3.94
                                   
;Creality Print GCode Generated by CXEngine:NO_MAGE_VERSION_GIT_HEAD_BRANCH
;CXEngine Release Time:2022-09-30 09:53:04
;Gcode Generated Time:2022-11-17 11:30:02
;----------Machine Config--------------
;Machine Name:Fast Ender-3 S1 Pro
;Machine Height:270
;Machine Width:220
;Machine Depth:220
;Material name:PLA
;Number of Extruders:1
;ExtruderParams[0] Nozzle Diameter1000
;----------Profile Config---------------
;Engine Version:275f99b
;Engine Release Time:2022-09-30 09:42:18
;Layer Height:0.25
;Wall Thickness:1.2
;Top/Bottom Thickness:0.8
;Out Wall Line Width:0.4
;Inner Wall Line Width:0.4
;Inital Layer Height:190
;Wall Line Count:2
;Infill Line Distance:8
;Infill Pattern:grid
;Infill Sparse Density:10
;Infill Wipe Distance:0
;Print Temperature:200
;Bed Temperature:60
;Support Enable:false
;Support Density:10
;Support Angle:45
;Adhesion Type:none
;machine is belt:false
;machine belt offset:10
;machine belt offset Y:0
;Raft Base Line Spacing:1.6
;Wait Heatup Sync:true
;----------Shell Config----------------
;Outer Wall Wipe Distance:200
;Outer Inset First:false
;Infill Before Walls:false
;Infill Overlap:0.16
;Fill Gaps Between Walls:everywhere
;Minimum Infill Area:1
;Top Surface Skin Layer:0
;Top Layers:4
;Z Seam Alignment:sharpest_corner
;Seam Corner Preference:z_seam_corner_weighted
;Z Seam X:115
;Z Seam Y:115
;Horizontal Expansion:0
;Top/Bottom Pattern:zigzag
;Ironing Pattern:zigzag
;Vase Model:false
;----------Support Config----------------
;Support Type:everywhere
;Support Pattern:zigzag
;Support Infill Layer Thickness:0.25
;Minimum Support Area:5
;Enable Support Roof:false
;Support Roof Thickness:0.8
;Support Roof Pattern:lines
;Connect Support Lines:0
;Connect Support ZigZags:1
;Minimum Support X/Y Distance:0.2
;Support Line Distance:4
; ---------PrintSpeed & Travel----------
;Enable Print Cool:true
;Avoid Printed Parts Traveling:true
;Enable Retraction:true
;Retraction Distance:0.4
;Retraction Speed:40
;Retraction Prime Speed:40
;Maximum Retraction Count:100
;Minimum Extrusion Distance Window:1
;Z Hop When Retracted:false
;Z Hop Height:0.2
;Retract Before Outer Wall:true
;Print Speed:170
;Infill Speed:170

;Prime Tower Speed:160
;Travel Speed:200
;Initial Layer Speed:60
;Skirt/Brim Speed:60
;Combing Mode:noskin
; --------SpecialModel&Mesh Fixes--------
;Union Overlapping Volum:true
;Remove All Holes:false
;Maximum Travel Resolution:0.31
;Maximum Deviation:0.05
;Maximum Model Angle:0.872665
;IS Mold Print:false
;Make Overhang Printable:false
;Enable Coasting:false
;Coasting Volumes:0.06
;Coasting Speed:0.9
;Raft AirGap:0.25
;Layer0 ZOverLap:0.13
;---------------------End of Head--------------------------

M105
M104 S40
M105
M109 S40
M105
M82 ;absolute extrusion mode
G90
G92 E0 ; Reset Extruder
G28 ; Home all axes

G1 Z2.0 F3000 
G1 X5.1 Y20 Z0.3 F5000.0 
G1 X5.1 Y200.0 Z0.3 F1500.0 E15
G1 X5.4 Y200.0 Z0.3 F5000.0 
G1 X5.4 Y20 Z0.3 F1500.0 E30 
G92 E0 
G1 Z2.0 F3000
G1 X5 Y20 Z0.3 F5000.0

G92 E0
G92 E0
G1 F2400 E-0.4

;LAYER_COUNT:16

;LAYER:0
M107
M204 S1000
;MESH:
G0 F3900 X108.6 Y111.4 Z0.19
M104 S40
;TYPE:WALL-INNER
G1 F2400 E0
G1 F1069.5 X108.6 Y108.6 E0.09732
G1 X111.4 Y108.6 E0.19464
G1 X111.4 Y111.4 E0.29196
G1 X108.6 Y111.4 E0.38928
G0 F3900 X108.2 Y111.8
;TYPE:WALL-OUTER
G1 F1375.1 X108.2 Y108.2 E0.5144
G1 X111.8 Y108.2 E0.63953
G1 X111.8 Y111.8 E0.76465
G1 X108.2 Y111.8 E0.88978
G0 F3900 X108.2 Y111.6
G0 X108.64 Y111.36
G0 X108.98 Y111.019
;TYPE:SKIN
G1 F1375.1 X109.322 Y111.019 E0.90166
G1 X109.887 Y111.019 E0.9213
G1 X108.979 Y110.11 E0.96596
G1 X108.979 Y109.544 E0.98563
G1 X110.453 Y111.019 E1.0581
G1 X111.019 Y111.019 E1.07778
G1 X108.979 Y108.979 E1.17805
G1 X109.545 Y108.98 E1.19772
G1 X111.019 Y110.453 E1.27015
G1 X111.019 Y109.887 E1.28982
G1 X110.111 Y108.98 E1.33443
G1 X110.677 Y108.98 E1.3541
G1 X111.019 Y108.98 E1.36599
G0 F3900 X111.019 Y109.322
G1 F1375.1 X110.677 Y108.98 E1.3828
G0 F3900 X110.677 Y108.71
G0 X108.782 Y108.782
G0 X108.71 Y110.676
G0 X108.979 Y110.676
G1 F1375.1 X109.322 Y111.019 E1.39966
G0 F3900 X109.322 Y111.2
;MESH:NONMESH
G0 F600 X109.322 Y111.2 Z0.44
G0 F3900 X108.6 Y111.4
;TIME_ELAPSED:7.536577

;LAYER:1
M140 S60
M106 S127.5
;TYPE:WALL-INNER
;MESH:
G1 F1247.7 X108.6 Y108.6 E1.51607
G1 X111.4 Y108.6 E1.63248
G1 X111.4 Y111.4 E1.74889
G1 X108.6 Y111.4 E1.8653
M204 S1750
G0 F7950 X108.2 Y111.8
M204 S1000
;TYPE:WALL-OUTER
G1 F1604.2 X108.2 Y108.2 E2.01497
G1 X111.8 Y108.2 E2.16464
G1 X111.8 Y111.8 E2.31431
G1 X108.2 Y111.8 E2.46398
M204 S1750
G0 F7950 X108.2 Y111.6
G0 X108.64 Y111.36
G0 X108.71 Y108.979
G0 X108.979 Y108.979
M204 S1250
;TYPE:SKIN
G1 F1833.4 X108.98 Y109.374 E2.48041
G1 X109.375 Y108.979 E2.50363
G1 X109.94 Y108.979 E2.52712
G1 X108.98 Y109.94 E2.58359
G1 X108.98 Y110.505 E2.60708
G1 X110.506 Y108.979 E2.69681
G1 X111.019 Y108.98 E2.71814
G1 X111.019 Y109.032 E2.7203
G1 X109.032 Y111.019 E2.83713
G1 X109.598 Y111.019 E2.86066
G1 X111.019 Y109.598 E2.94421
G1 X111.019 Y110.163 E2.9677
G1 X110.163 Y111.019 E3.01803
G1 X110.729 Y111.019 E3.04156
G1 X111.019 Y110.729 E3.05861
G1 X111.019 Y111.019 E3.07066
M204 S1750
G0 F7950 X111.019 Y111.2
;MESH:NONMESH
G0 F600 X111.019 Y111.2 Z0.69
G0 F7950 X111.019 Y111.29
G0 X108.6 Y111.4
;TIME_ELAPSED:10.138048

;LAYER:2
M106 S255
M204 S1000
;TYPE:WALL-INNER
;MESH:
G1 F1426 X108.6 Y108.6 E3.18708
G1 X111.4 Y108.6 E3.30349
G1 X111.4 Y111.4 E3.4199
G1 X108.6 Y111.4 E3.53631
M204 S2500
G0 F12000 X108.2 Y111.8
M204 S1000
;TYPE:WALL-OUTER
G1 F1833.4 X108.2 Y108.2 E3.68598
G1 X111.8 Y108.2 E3.83565
G1 X111.8 Y111.8 E3.98532
G1 X108.2 Y111.8 E4.13499
M204 S2500
G0 F12000 X108.2 Y111.6
G0 X108.64 Y111.36
G0 X108.98 Y111.019
M204 S1500
;TYPE:SKIN
G1 F2291.8 X109.322 Y111.019 E4.14921
G1 X109.887 Y111.019 E4.1727
G1 X108.979 Y110.11 E4.22611
G1 X108.979 Y109.544 E4.24965
G1 X110.453 Y111.019 E4.33634
G1 X111.019 Y111.019 E4.35987
G1 X108.979 Y108.979 E4.47982
G1 X109.545 Y108.98 E4.50335
G1 X111.019 Y110.453 E4.58998
G1 X111.019 Y109.887 E4.61352
G1 X110.111 Y108.98 E4.66687
G1 X110.677 Y108.98 E4.6904
G1 X111.019 Y108.98 E4.70462
M204 S2500
G0 F12000 X111.019 Y109.322
M204 S1500
G1 F2291.8 X110.677 Y108.98 E4.72473
M204 S2500
G0 F12000 X110.677 Y108.71
G0 X108.782 Y108.782
G0 X108.71 Y110.676
G0 X108.979 Y110.676
M204 S1500
G1 F2291.8 X109.322 Y111.019 E4.7449
M204 S2500
G0 F12000 X109.322 Y111.2
;MESH:NONMESH
G0 F600 X109.322 Y111.2 Z0.94
G0 F12000 X108.6 Y111.4
;TIME_ELAPSED:12.761900

;LAYER:3
M204 S1000
;TYPE:WALL-INNER
;MESH:
G1 F1426 X108.6 Y108.6 E4.86131
G1 X111.4 Y108.6 E4.97772
G1 X111.4 Y111.4 E5.09413
G1 X108.6 Y111.4 E5.21054
M204 S2500
G0 F12000 X108.2 Y111.8
M204 S1000
;TYPE:WALL-OUTER
G1 F1833.4 X108.2 Y108.2 E5.36021
G1 X111.8 Y108.2 E5.50988
G1 X111.8 Y111.8 E5.65955
G1 X108.2 Y111.8 E5.80922
M204 S2500
G0 F12000 X108.2 Y111.6
G0 X108.64 Y111.36
G0 X108.972 Y108.972
;TYPE:FILL
G1 F3896 X111.026 Y111.026 E5.92999
G1 X111.026 Y108.972 E6.01539
G1 X108.972 Y111.026 E6.13615
G0 F12000 X108.973 Y111.027
G1 F3896 X108.973 Y108.973 E6.22155
G1 X111.027 Y108.973 E6.30694
;MESH:NONMESH
G0 F600 X111.027 Y108.973 Z1.19
G0 F12000 X108.6 Y111.4
;TIME_ELAPSED:14.990163

;LAYER:4
M204 S1000
;TYPE:WALL-INNER
;MESH:
G1 F1426 X108.6 Y108.6 E6.42335
G1 X111.4 Y108.6 E6.53976
G1 X111.4 Y111.4 E6.65618
G1 X108.6 Y111.4 E6.77259
M204 S2500
G0 F12000 X108.2 Y111.8
M204 S1000
;TYPE:WALL-OUTER
G1 F1833.4 X108.2 Y108.2 E6.92226
G1 X111.8 Y108.2 E7.07193
G1 X111.8 Y111.8 E7.2216
G1 X108.2 Y111.8 E7.37127
M204 S2500
G0 F12000 X108.2 Y111.6
G0 X108.64 Y111.36
G0 X108.973 Y111.027
;TYPE:FILL
G1 F3896 X108.973 Y108.973 E7.45666
G1 X111.027 Y108.973 E7.54206
G0 F12000 X111.026 Y108.972
G1 F3896 X111.027 Y111.027 E7.6275
G0 F12000 X111.026 Y111.026
G1 F3896 X108.972 Y108.972 E7.74826
G0 F12000 X111.026 Y108.972
G1 F3896 X108.972 Y111.026 E7.86903
;MESH:NONMESH
G0 F600 X108.972 Y111.026 Z1.44
G0 F12000 X108.602 Y111.4
;TIME_ELAPSED:17.145270

;LAYER:5
M204 S1000
;TYPE:WALL-INNER
;MESH:
G1 F1446.4 X108.602 Y111.17 E7.87859
G1 X108.692 Y111.159 E7.88236
G1 X108.667 Y110.064 E7.9279
G1 X108.6 Y110.033 E7.93097
G1 X108.6 Y108.691 E7.98676
G1 X110.751 Y108.671 E8.07619
G1 X110.776 Y108.6 E8.07932
G1 X111.199 Y108.6 E8.09691
G1 X111.399 Y108.6 E8.10523
G1 X111.399 Y108.8 E8.11061
G1 X111.397 Y109.152 E8.12524
G1 X111.32 Y109.162 E8.12847
G1 X111.32 Y110.264 E8.17429
G1 X111.4 Y110.298 E8.1779
G1 X111.4 Y111.314 E8.22014
G1 X109.476 Y111.329 E8.30014
G1 X109.451 Y111.4 E8.30326
G1 X108.692 Y111.4 E8.33482
G1 X108.602 Y111.4 E8.33703
M204 S2500
G0 F12000 X108.201 Y111.8
M204 S1000
;TYPE:WALL-OUTER
G1 F1931.3 X108.201 Y111.6 E8.34534
G1 X108.203 Y110.816 E8.37794
G1 X108.284 Y110.806 E8.38133
G1 X108.273 Y110.322 E8.40146
G1 X108.2 Y110.288 E8.40481
G1 X108.2 Y108.401 E8.48326
G1 X108.2 Y108.201 E8.49158
G1 X108.4 Y108.201 E8.49696
G1 X108.89 Y108.203 E8.51733
G1 X108.904 Y108.284 E8.52075
G1 X109.482 Y108.27 E8.54479
G1 X109.483 Y108.201 E8.54766
G1 X109.889 Y108.204 E8.56454
G1 X109.888 Y108.283 E8.56782
G1 X110.468 Y108.275 E8.59194
G1 X110.495 Y108.2 E8.59525
G1 X111.6 Y108.2 E8.64119
G1 X111.8 Y108.2 E8.64951
G1 X111.8 Y108.4 E8.65489
G1 X111.796 Y109.503 E8.70075
G1 X111.72 Y109.513 E8.70393
G1 X111.72 Y109.999 E8.72414
G1 X111.8 Y110.033 E8.72775
G1 X111.8 Y111.599 E8.79286
G1 X111.8 Y111.799 E8.80118
G1 X111.6 Y111.799 E8.80656
G1 X111.337 Y111.798 E8.81749
G1 X111.323 Y111.716 E8.82095
G1 X110.744 Y111.73 E8.84503
G1 X110.743 Y111.799 E8.8479
G1 X110.338 Y111.796 E8.86474
G1 X110.339 Y111.717 E8.86802
G1 X109.759 Y111.725 E8.89214
G1 X109.732 Y111.8 E8.89545
G1 X108.401 Y111.8 E8.95079
G1 X108.201 Y111.8 E8.95617
M204 S2500
G0 F12000 X108.201 Y111.6
G0 X108.641 Y111.36
G0 X109.058 Y109.058
;TYPE:FILL
G1 F4104.1 X110.942 Y110.942 E9.06695
G1 X111.027 Y110.943 E9.07048
G1 X111.027 Y110.545 E9.08703
G1 X110.947 Y110.511 E9.09064
G1 X110.946 Y109.052 E9.1513
G1 X109.059 Y110.94 E9.26228
G1 X109.035 Y109.822 E9.30877
G1 X108.973 Y109.794 E9.3116
G1 X108.973 Y109.06 E9.34211
G1 X110.947 Y109.042 E9.42419
G0 F12000 X110.928 Y108.839
M204 S1500
;TYPE:SKIN
G1 F2414.2 X111.15 Y108.9 E9.42989
M204 S2500
G0 F12000 X111.199 Y108.849
;MESH:NONMESH
G0 F600 X111.199 Y108.849 Z1.69
G0 F12000 X108.6 Y111.4
;TIME_ELAPSED:19.972949

;LAYER:6
M204 S1000
;TYPE:WALL-INNER
;MESH:
G1 F1531.2 X108.6 Y111.351 E9.43192
G1 X108.6 Y111.241 E9.4365
G1 X108.813 Y111.241 E9.44286
G1 X108.805 Y111.2
G1 X108.602 Y110.212 E9.4848
G1 X108.606 Y109.81 E9.50151
G1 X108.712 Y109.778 E9.50611
G1 X108.649 Y108.869 E9.544
G1 X108.624 Y108.852 E9.54525
G1 X108.6 Y108.835 E9.54648
G1 X108.6 Y108.804 E9.54776
G1 X108.6 Y108.6 E9.55625
G1 X108.653 Y108.6
G1 X108.656 Y108.804 E9.5574
G1 X108.689 Y108.798
G1 X109.292 Y108.685 E9.58291
G1 X109.308 Y108.682 E9.58359
G1 X109.307 Y108.764 E9.58539
G1 X109.318 Y108.763
G1 X110.572 Y108.6 E9.63796
G1 X111.4 Y108.6 E9.67239
G1 X111.4 Y109.078 E9.69226
G1 X111.32 Y109.078 E9.69559
G1 X111.32 Y110.467 E9.75333
G1 X111.4 Y110.467 E9.75666
G1 X111.4 Y111.228 E9.7883
G1 X110.934 Y111.315 E9.80801
G1 X110.918 Y111.318 E9.80868
G1 X110.919 Y111.236 E9.81048
G1 X110.908 Y111.237
G1 X109.809 Y111.381 E9.85657
G1 X109.781 Y111.288 E9.8606
G1 X108.871 Y111.351 E9.89853
G1 X108.837 Y111.4
G1 X108.813 Y111.4
G1 X108.6 Y111.4 E9.90206
M204 S2500
G0 F12000 X108.2 Y111.8
M204 S1000
;TYPE:WALL-OUTER
G1 F1963.2 X108.2 Y110.841 E9.94193
G1 X108.323 Y110.841 E9.94704
G1 X108.319 Y110.817
G1 X108.202 Y110.251 E9.97107
G1 X108.209 Y109.513 E10.00175
G1 X108.291 Y109.488 E10.00532
G1 X108.263 Y109.088 E10.02199
G1 X108.2 Y109.044 E10.02518
G1 X108.2 Y108.2 E10.06027
G1 X109.046 Y108.2 E10.09545
G1 X109.048 Y108.324 E10.1006
G1 X109.068 Y108.321
G1 X109.691 Y108.204 E10.12696
G1 X109.712 Y108.2 E10.12784
G1 X109.711 Y108.308 E10.13028
G1 X109.725 Y108.307
G1 X110.351 Y108.225 E10.15652
G1 X110.35 Y108.2 E10.15756
G1 X111.8 Y108.2 E10.21785
G1 X111.8 Y109.478 E10.27098
G1 X111.72 Y109.478 E10.27431
G1 X111.72 Y110.067 E10.2988
G1 X111.8 Y110.067 E10.30212
G1 X111.8 Y111.8 E10.37417
G1 X111.18 Y111.8 E10.39995
G1 X111.178 Y111.676 E10.4051
G1 X111.158 Y111.679
G1 X110.535 Y111.796 E10.43146
G1 X110.514 Y111.8 E10.43235
G1 X110.515 Y111.692 E10.43478
G1 X110.501 Y111.693
G1 X109.875 Y111.775 E10.46103
G1 X109.875 Y111.797 E10.46194
G1 X109.515 Y111.792 E10.47278
G1 X109.49 Y111.709 E10.47625
G1 X109.09 Y111.737 E10.49292
G1 X109.046 Y111.8 E10.49611
G1 X108.2 Y111.8 E10.53128
M204 S2500
G0 F12000 X108.2 Y111.6
G0 X108.64 Y111.36
G0 X109.159 Y109.159
;TYPE:FILL
G1 F4171.7 X110.867 Y110.867 E10.63171
G1 X110.947 Y110.857 E10.63506
G1 X110.945 Y109.053 E10.71006
G1 X109.12 Y110.879 E10.81739
G1 X108.975 Y110.173 E10.84736
G1 X108.976 Y110.088 E10.85089
G1 X109.104 Y110.05 E10.85644
G1 X109.045 Y109.175 E10.8929
G1 X110.601 Y108.973 E10.95814
G1 X110.947 Y108.973 E10.97252
G0 F12000 X111.099 Y108.836
M204 S1500
;TYPE:SKIN
G1 F2454 X111.145 Y108.883 E10.97389
M204 S2500
G0 F12000 X111.099 Y110.816
M204 S1500
G1 F2454 X111.204 Y110.921 E10.97698
M204 S2500
G0 F12000 X109.022 Y109.022
M204 S1500
G1 F2454 X108.947 Y108.947 E10.97918
M204 S2500
G0 F12000 X108.944 Y108.954
;MESH:NONMESH
G0 F600 X108.944 Y108.954 Z1.94
G0 F12000 X108.6 Y111.32
;TIME_ELAPSED:23.155602

;LAYER:7
M204 S1000
;TYPE:WALL-INNER
;MESH:
G1 F1425.6 X108.6 Y111.241 E10.98247
G1 X108.68 Y111.241 E10.98455
G1 X108.68 Y108.8 E11.08603
G1 X108.68 Y108.6 E11.09435
G1 X108.839 Y108.6 E11.09896
G1 X108.842 Y108.8 E11.1023
G1 X108.875 Y108.794
G1 X109.485 Y108.68 E11.1281
G1 X111.33 Y108.68 E11.20481
G1 X111.371 Y108.6 E11.20854
G1 X111.4 Y108.6 E11.20975
G1 X111.4 Y108.68 E11.21007
G1 X111.4 Y109.078 E11.22662
G1 X111.32 Y109.078 E11.22994
G1 X111.32 Y111.212 E11.31867
G1 X110.743 Y111.32 E11.34307
G1 X108.68 Y111.32 E11.42884
G1 X108.6 Y111.32 E11.4295
M204 S2500
G0 F12000 X108.2 Y111.8
M204 S1000
;TYPE:WALL-OUTER
G1 F2004.3 X108.2 Y110.841 E11.46937
G1 X108.28 Y110.841 E11.4727
G1 X108.28 Y110.251 E11.49723
G1 X108.2 Y110.251 E11.50055
G1 X108.2 Y109.563 E11.52916
G1 X108.28 Y109.563 E11.53248
G1 X108.28 Y108.997 E11.55601
G1 X108.2 Y108.997 E11.55934
G1 X108.2 Y108.2 E11.59247
G1 X109.232 Y108.2 E11.63538
G1 X109.232 Y108.259 E11.63783
G1 X109.234 Y108.32 E11.64037
G1 X109.253 Y108.317
G1 X109.589 Y108.254 E11.65065
G1 X109.595 Y108.28 E11.65176
G1 X110.167 Y108.28 E11.67554
G1 X110.167 Y108.2 E11.67887
G1 X110.224 Y108.2 E11.6799
G1 X110.224 Y108.28 E11.68037
G1 X111.086 Y108.28 E11.71621
G1 X111.127 Y108.2 E11.71995
G1 X111.8 Y108.2 E11.74793
G1 X111.8 Y109.478 E11.80106
G1 X111.72 Y109.478 E11.80438
G1 X111.72 Y110.067 E11.82887
G1 X111.8 Y110.067 E11.8322
G1 X111.8 Y110.134 E11.83368
G1 X111.72 Y110.134 E11.83423
G1 X111.72 Y110.992 E11.8699
G1 X111.8 Y111.036 E11.8737
G1 X111.8 Y111.8 E11.90546
G1 X110.995 Y111.8 E11.93893
G1 X110.995 Y111.742 E11.94134
G1 X110.993 Y111.68 E11.94392
G1 X110.974 Y111.683
G1 X110.635 Y111.747 E11.95433
G1 X110.629 Y111.72 E11.95548
G1 X110.059 Y111.72 E11.97917
G1 X110.059 Y111.8 E11.9825
G1 X109.565 Y111.8 E12.00304
G1 X109.565 Y111.72 E12.00636
G1 X108.999 Y111.72 E12.0299
G1 X108.999 Y111.8 E12.03322
G1 X108.2 Y111.8 E12.06644
M204 S2500
G0 F12000 X108.2 Y111.6
G0 X108.47 Y111.53
G0 X109.053 Y110.947
;TYPE:FILL
G1 F4259.1 X109.053 Y109.14 E12.14157
